X:2415
T:Polska från Norrbotten
T:Svenska Folkdansar H1 nr 1
B:Traditioner av Svenska Folkdansar Häfte 1, nr 1
B:http://www.smus.se/earkiv/fmk/browselarge.php?lang=sw&katalogid=MMD+30&bildnr=00002
M:3/4
Z:2012-08-02 Per Oldberg
L:1/8
O:Norrbotten
R:Polska
V:1
V:2 merge 
V:3 
V:4 merge
K:Bb
V:1
(g2^f)fdd | (g2^f)fdd | (g2^f)fdd | (g2^f)fdd | 
V:2
(g2^f)fdd | (g2^f)fdd | c2d2z2 | c2d2z2 | 
V:3
(B2c4) | (B2c4) | (G2A)A^FF | (G2A)A^FF | 
V:4
(G2A4) | (G2A4) | (=E2D4) | (=E2D4) | 
V:1
d>_e d=c/B/ AB | AB {d}cB/A/ Bc | d>_e d=c/B/ AB | AB {d}cB/A/ Bc | 
V:2
B>c BA/G/ ^FG | ^FG {B}AG/^F/ GA | B>c BA/G/ ^FG | ^FG {B}AG/^F/ GA | 
V:3 clef bass
zDD4 | D6 | D6 | D6 | 
V:4 clef bass
zD,D4 | D,6 | D,6 | D,6 | 
V:1
d(d/e/) c(c/d/) B(c/B/) | (B/A/G/^F/) G2D2 | (GABcd)B | (B/A/G/^F/) G2g2 ||
V:2
BBAAGG | (B/A/G/^F/) G2D2 | (DFGAB)G | (B/A/G/^F/) G2g2 ||
V:3
D,D^F,DG,D | CDB,G,^F,D, | (B,A,G,=F,B,,)E, | C,D, G,D,/B,,/G,,2 || 
(:musicend:)
(:music:)
